X:425
T: WIR PREUSSEN ZIEHEN IN DAS FELD
N: E0352
O: Europa, Mitteleuropa, Deutschland, Pommern
R: historisches Lied, preussisches Kriegs - Lied (1813)
M: 4/4
L: 1/8
K: Bb
F2 | B2F2F2B2 | G2E2E2
c2 | A2F2G2A2 | B4z2
F2 | B2F2F2B2 | G2E2E2
c2 | A2F2G2A2 | B4z2
Bc | d2d2edcB | c2F2F2
FA | c2c2fedc | B2c2d
FGA | B4dcBA | G4e
eee | d2d2c2c2 | B4z3
f | d2zfd2zf | gfede2z
e | c2zec2ze | fedcd
FFF | B4dcBA | G4e
dcB | A2f2f2f2 | B4z2

